X:28
T:Cock a Bendie
M:C|
L:1/8
K:F
F2FA G2GA|F2FA def2|FGAF GABG|FGAa gef2:|
defd gfec|defa gef2|defa gfec|dcAc def2:|

